X: 111201
T: ROTHIEMURCHIE'S RANT
Q: "Strathspey."
R:  Strathspey.
%R: strathspey
B: James Kerr "Merry Melodies" v.1 p.11 s.2 #1
Z: 2017 John Chambers <jc:trillian.mit.edu>
M: C
L: 1/16
K: C
|: G2 |\
vE3vD (EC3) (EG3) G4 | vc3vGuA3uG c2G2 Ac3 |\
E3DE3C (EG3) G3c | A3cG3c (ED3) D2 ::\
ug2 |\
e4 (d3c) vd3ued2A2 | vc3vdue3ud edcB cG3 |
AAA2 ua3ug e4 (d2c2) | A3cG3c (ED3) D2 :|\
ug2 |\
veug3 vg3ua vg3ua g2d2 | ea3 a3b a3ba2g2 |\
eg3 d3e c3de2c2 | Aa3 g3e ve3vdud3ue |\
(ge3) ud3uc (de3) a4 |
(ge3) ue3ud cA3 A3uc |\
G3Ac3d (3(c2d2e2) (d2c2) | A3cG3c (ED3)D2 ||\
ug2 |\
f2e2d2c2 (de3) a4 | ge3 e3d cA3 A2g2 |\
a3e g3d e4(d2c2) | A3cG3c (ED3) D2 |]

%%sep 1 1 500
%%sep 1 1 500

